X:1
T:Title
%%score 1 2
L:1/8
Q:1/4=102
M:4/4
K:G
V:1 treble nm="Grand Piano, Soprano"
V:2 bass nm="Choir Pad, Memorial, H. Ross Phillips"
V:1
 D2 D>[DG] [GB]3 [G_B] | [GB]2 [Gc]2 [FA]4 | D2 D>[DF] [DA]3 [D^G] | [DA]2 [DB]2 [DG]4 | %4
w: By~H.~Ross~Phillips,~1916 * * * *||||
 D2 D>[DG] [DB]3 [Dd] | [Ed]2 [Ec]2 [CE]4 | [A,D]4 [^CE]2 [=CF]2 | [B,G]8 |] %8
w: ||||
V:2
 [G,B,]2 [G,B,]>[G,B,] [G,D]3 [B,^C] | [G,D]2 [G,E]2 [D,C]4 | [D,C]2 [D,C]>[D,C] [D,C]3 [D,B,] | %3
 [D,C]2 [D,D]2 [G,B,]4 | [G,B,]2 [G,B,]>[G,B,] [G,B,]3 [G,B,] | [C,C]2 [C,C]2 [C,G,]4 | %6
 [D,F,]4 [D,G,]2 [D,A,]2 | [G,,G,]8 |] %8

